images/275196.svg

<?xml version="1.0" encoding="UTF-8"?>
<svg xmlns="http://www.w3.org/2000/svg" xmlns:xlink="http://www.w3.org/1999/xlink" width="300pt" height="300pt" viewBox="0 0 300 300" version="1.1">
<defs>
<g>
<symbol overflow="visible" id="glyph0-0">
<path style="stroke:none;" d="M 0.453125 1.59375 L 0.453125 -6.34375 L 4.953125 -6.34375 L 4.953125 1.59375 Z M 0.953125 1.09375 L 4.453125 1.09375 L 4.453125 -5.84375 L 0.953125 -5.84375 Z M 0.953125 1.09375 "/>
</symbol>
<symbol overflow="visible" id="glyph0-1">
<path style="stroke:none;" d="M 0.890625 -6.5625 L 2.078125 -6.5625 L 4.984375 -1.078125 L 4.984375 -6.5625 L 5.84375 -6.5625 L 5.84375 0 L 4.65625 0 L 1.75 -5.484375 L 1.75 0 L 0.890625 0 Z M 0.890625 -6.5625 "/>
</symbol>
<symbol overflow="visible" id="glyph0-2">
<path style="stroke:none;" d="M 3.546875 -5.953125 C 2.898438 -5.953125 2.382812 -5.710938 2 -5.234375 C 1.625 -4.753906 1.4375 -4.101562 1.4375 -3.28125 C 1.4375 -2.445312 1.625 -1.789062 2 -1.3125 C 2.382812 -0.832031 2.898438 -0.59375 3.546875 -0.59375 C 4.191406 -0.59375 4.703125 -0.832031 5.078125 -1.3125 C 5.453125 -1.789062 5.640625 -2.445312 5.640625 -3.28125 C 5.640625 -4.101562 5.453125 -4.753906 5.078125 -5.234375 C 4.703125 -5.710938 4.191406 -5.953125 3.546875 -5.953125 Z M 3.546875 -6.6875 C 4.460938 -6.6875 5.195312 -6.375 5.75 -5.75 C 6.300781 -5.132812 6.578125 -4.3125 6.578125 -3.28125 C 6.578125 -2.238281 6.300781 -1.410156 5.75 -0.796875 C 5.195312 -0.179688 4.460938 0.125 3.546875 0.125 C 2.617188 0.125 1.878906 -0.179688 1.328125 -0.796875 C 0.773438 -1.410156 0.5 -2.238281 0.5 -3.28125 C 0.5 -4.3125 0.773438 -5.132812 1.328125 -5.75 C 1.878906 -6.375 2.617188 -6.6875 3.546875 -6.6875 Z M 3.546875 -6.6875 "/>
</symbol>
</g>
</defs>
<g id="surface43605">
<rect x="0" y="0" width="300" height="300" style="fill:rgb(100%,100%,100%);fill-opacity:1;stroke:none;"/>
<path style="fill:none;stroke-width:1.2;stroke-linecap:butt;stroke-linejoin:miter;stroke:rgb(0%,0%,0%);stroke-opacity:1;stroke-miterlimit:10;" d="M 162.246094 99.960938 L 149.980469 103.402344 "/>
<path style="fill:none;stroke-width:1.2;stroke-linecap:butt;stroke-linejoin:miter;stroke:rgb(0%,0%,100%);stroke-opacity:1;stroke-miterlimit:10;" d="M 149.980469 103.402344 L 137.714844 106.84375 "/>
<path style="fill:none;stroke-width:1.2;stroke-linecap:butt;stroke-linejoin:miter;stroke:rgb(0%,0%,100%);stroke-opacity:1;stroke-miterlimit:10;" d="M 137.714844 106.84375 L 128.601562 97.941406 "/>
<path style="fill:none;stroke-width:1.2;stroke-linecap:butt;stroke-linejoin:miter;stroke:rgb(0%,0%,0%);stroke-opacity:1;stroke-miterlimit:10;" d="M 128.601562 97.941406 L 119.488281 89.039062 "/>
<path style="fill:none;stroke-width:1.2;stroke-linecap:butt;stroke-linejoin:miter;stroke:rgb(0%,0%,0%);stroke-opacity:1;stroke-miterlimit:10;" d="M 131.410156 131.53125 L 134.5625 119.1875 "/>
<path style="fill:none;stroke-width:1.2;stroke-linecap:butt;stroke-linejoin:miter;stroke:rgb(0%,0%,100%);stroke-opacity:1;stroke-miterlimit:10;" d="M 134.5625 119.1875 L 137.714844 106.84375 "/>
<path style=" stroke:none;fill-rule:nonzero;fill:rgb(100%,100%,100%);fill-opacity:1;" d="M 134.714844 101.34375 L 141.714844 101.34375 L 141.714844 112.34375 L 134.714844 112.34375 Z M 134.714844 101.34375 "/>
<g style="fill:rgb(0%,0%,100%);fill-opacity:1;">
  <use xlink:href="#glyph0-1" x="134.714844" y="110.006836"/>
</g>
<path style="fill:none;stroke-width:1.2;stroke-linecap:butt;stroke-linejoin:miter;stroke:rgb(0%,0%,0%);stroke-opacity:1;stroke-miterlimit:10;" d="M 119.488281 89.039062 L 94.957031 95.921875 "/>
<path style="fill:none;stroke-width:1.2;stroke-linecap:butt;stroke-linejoin:miter;stroke:rgb(0%,0%,0%);stroke-opacity:1;stroke-miterlimit:10;" d="M 94.957031 95.921875 L 88.652344 120.609375 "/>
<path style="fill:none;stroke-width:1.2;stroke-linecap:butt;stroke-linejoin:miter;stroke:rgb(0%,0%,0%);stroke-opacity:1;stroke-miterlimit:10;" d="M 88.652344 120.609375 L 64.121094 127.492188 "/>
<path style="fill:none;stroke-width:1.2;stroke-linecap:butt;stroke-linejoin:miter;stroke:rgb(0%,0%,0%);stroke-opacity:1;stroke-miterlimit:10;" d="M 87.816406 127.070312 L 68.191406 132.574219 "/>
<path style="fill:none;stroke-width:1.2;stroke-linecap:butt;stroke-linejoin:miter;stroke:rgb(0%,0%,0%);stroke-opacity:1;stroke-miterlimit:10;" d="M 106.878906 138.410156 L 88.652344 120.609375 "/>
<path style="fill:none;stroke-width:1.2;stroke-linecap:butt;stroke-linejoin:miter;stroke:rgb(0%,0%,0%);stroke-opacity:1;stroke-miterlimit:10;" d="M 64.121094 127.492188 L 57.816406 152.175781 "/>
<path style="fill:none;stroke-width:1.2;stroke-linecap:butt;stroke-linejoin:miter;stroke:rgb(0%,0%,0%);stroke-opacity:1;stroke-miterlimit:10;" d="M 57.816406 152.175781 L 76.039062 169.980469 "/>
<path style="fill:none;stroke-width:1.2;stroke-linecap:butt;stroke-linejoin:miter;stroke:rgb(0%,0%,0%);stroke-opacity:1;stroke-miterlimit:10;" d="M 55.449219 158.246094 L 70.027344 172.488281 "/>
<path style="fill:none;stroke-width:1.2;stroke-linecap:butt;stroke-linejoin:miter;stroke:rgb(100%,0%,0%);stroke-opacity:1;stroke-miterlimit:10;" d="M 35.25 164.007812 L 46.53125 158.09375 "/>
<path style="fill:none;stroke-width:1.2;stroke-linecap:butt;stroke-linejoin:miter;stroke:rgb(0%,0%,0%);stroke-opacity:1;stroke-miterlimit:10;" d="M 46.53125 158.09375 L 57.816406 152.175781 "/>
<path style="fill:none;stroke-width:1.2;stroke-linecap:butt;stroke-linejoin:miter;stroke:rgb(0%,0%,0%);stroke-opacity:1;stroke-miterlimit:10;" d="M 76.039062 169.980469 L 100.570312 163.097656 "/>
<path style="fill:none;stroke-width:1.2;stroke-linecap:butt;stroke-linejoin:miter;stroke:rgb(0%,0%,0%);stroke-opacity:1;stroke-miterlimit:10;" d="M 76.039062 169.980469 L 70.390625 181.398438 "/>
<path style="fill:none;stroke-width:1.2;stroke-linecap:butt;stroke-linejoin:miter;stroke:rgb(100%,0%,0%);stroke-opacity:1;stroke-miterlimit:10;" d="M 70.390625 181.398438 L 64.742188 192.816406 "/>
<path style="fill:none;stroke-width:1.2;stroke-linecap:butt;stroke-linejoin:miter;stroke:rgb(0%,0%,0%);stroke-opacity:1;stroke-miterlimit:10;" d="M 100.570312 163.097656 L 106.878906 138.410156 "/>
<path style="fill:none;stroke-width:1.2;stroke-linecap:butt;stroke-linejoin:miter;stroke:rgb(0%,0%,0%);stroke-opacity:1;stroke-miterlimit:10;" d="M 95.394531 159.144531 L 100.4375 139.398438 "/>
<path style="fill:none;stroke-width:1.2;stroke-linecap:butt;stroke-linejoin:miter;stroke:rgb(0%,0%,0%);stroke-opacity:1;stroke-miterlimit:10;" d="M 100.570312 163.097656 L 109.683594 172 "/>
<path style="fill:none;stroke-width:1.2;stroke-linecap:butt;stroke-linejoin:miter;stroke:rgb(100%,0%,0%);stroke-opacity:1;stroke-miterlimit:10;" d="M 109.683594 172 L 118.796875 180.902344 "/>
<path style=" stroke:none;fill-rule:nonzero;fill:rgb(0%,0%,0%);fill-opacity:1;" d="M 131.410156 131.53125 L 105.664062 134.082031 L 108.09375 142.742188 Z M 131.410156 131.53125 "/>
<path style="fill:none;stroke-width:1.2;stroke-linecap:butt;stroke-linejoin:miter;stroke:rgb(0%,0%,0%);stroke-opacity:1;stroke-miterlimit:10;" d="M 131.410156 131.53125 L 149.636719 149.332031 "/>
<path style="fill:none;stroke-width:1;stroke-linecap:butt;stroke-linejoin:miter;stroke:rgb(0%,0%,0%);stroke-opacity:1;stroke-miterlimit:10;" d="M 149.636719 149.332031 L 149.636719 149.332031 M 152.636719 149.351562 L 152.460938 148.324219 M 155.636719 149.367188 L 155.285156 147.3125 M 158.636719 149.386719 L 158.109375 146.300781 M 161.636719 149.402344 L 160.933594 145.292969 M 164.636719 149.421875 L 163.757812 144.28125 M 167.636719 149.4375 L 166.582031 143.273438 M 170.636719 149.457031 L 169.410156 142.261719 M 173.636719 149.472656 L 172.234375 141.25 M 175.507812 149.484375 L 173.996094 140.621094 "/>
<path style="fill:none;stroke-width:1.2;stroke-linecap:butt;stroke-linejoin:miter;stroke:rgb(100%,0%,0%);stroke-opacity:1;stroke-miterlimit:10;" d="M 145.945312 174.542969 L 147.789062 161.9375 "/>
<path style="fill:none;stroke-width:1.2;stroke-linecap:butt;stroke-linejoin:miter;stroke:rgb(0%,0%,0%);stroke-opacity:1;stroke-miterlimit:10;" d="M 147.789062 161.9375 L 149.636719 149.332031 "/>
<path style="fill:none;stroke-width:1.2;stroke-linecap:butt;stroke-linejoin:miter;stroke:rgb(0%,0%,0%);stroke-opacity:1;stroke-miterlimit:10;" d="M 174.75 145.054688 L 186.585938 167.617188 "/>
<path style="fill:none;stroke-width:1.2;stroke-linecap:butt;stroke-linejoin:miter;stroke:rgb(0%,0%,0%);stroke-opacity:1;stroke-miterlimit:10;" d="M 188.378906 123.523438 L 174.75 145.054688 "/>
<path style="fill:none;stroke-width:1.2;stroke-linecap:butt;stroke-linejoin:miter;stroke:rgb(0%,0%,0%);stroke-opacity:1;stroke-miterlimit:10;" d="M 192.082031 128.882812 L 181.179688 146.105469 "/>
<path style="fill:none;stroke-width:1.2;stroke-linecap:butt;stroke-linejoin:miter;stroke:rgb(0%,0%,0%);stroke-opacity:1;stroke-miterlimit:10;" d="M 186.585938 167.617188 L 212.042969 168.652344 "/>
<path style="fill:none;stroke-width:1.2;stroke-linecap:butt;stroke-linejoin:miter;stroke:rgb(0%,0%,0%);stroke-opacity:1;stroke-miterlimit:10;" d="M 189.375 161.730469 L 209.738281 162.558594 "/>
<path style="fill:none;stroke-width:1.2;stroke-linecap:butt;stroke-linejoin:miter;stroke:rgb(0%,0%,0%);stroke-opacity:1;stroke-miterlimit:10;" d="M 186.585938 167.617188 L 168.78125 185.84375 "/>
<path style="fill:none;stroke-width:1.2;stroke-linecap:butt;stroke-linejoin:miter;stroke:rgb(0%,0%,0%);stroke-opacity:1;stroke-miterlimit:10;" d="M 212.042969 168.652344 L 225.667969 147.125 "/>
<path style="fill:none;stroke-width:1.2;stroke-linecap:butt;stroke-linejoin:miter;stroke:rgb(0%,0%,0%);stroke-opacity:1;stroke-miterlimit:10;" d="M 212.042969 168.652344 L 217.957031 179.933594 "/>
<path style="fill:none;stroke-width:1.2;stroke-linecap:butt;stroke-linejoin:miter;stroke:rgb(100%,0%,0%);stroke-opacity:1;stroke-miterlimit:10;" d="M 217.957031 179.933594 L 223.875 191.21875 "/>
<path style="fill:none;stroke-width:1.2;stroke-linecap:butt;stroke-linejoin:miter;stroke:rgb(0%,0%,0%);stroke-opacity:1;stroke-miterlimit:10;" d="M 225.667969 147.125 L 213.835938 124.558594 "/>
<path style="fill:none;stroke-width:1.2;stroke-linecap:butt;stroke-linejoin:miter;stroke:rgb(0%,0%,0%);stroke-opacity:1;stroke-miterlimit:10;" d="M 219.175781 147.652344 L 209.707031 129.597656 "/>
<path style="fill:none;stroke-width:1.2;stroke-linecap:butt;stroke-linejoin:miter;stroke:rgb(0%,0%,0%);stroke-opacity:1;stroke-miterlimit:10;" d="M 225.667969 147.125 L 238.394531 147.640625 "/>
<path style="fill:none;stroke-width:1.2;stroke-linecap:butt;stroke-linejoin:miter;stroke:rgb(100%,0%,0%);stroke-opacity:1;stroke-miterlimit:10;" d="M 238.394531 147.640625 L 251.125 148.160156 "/>
<path style="fill:none;stroke-width:1.2;stroke-linecap:butt;stroke-linejoin:miter;stroke:rgb(0%,0%,0%);stroke-opacity:1;stroke-miterlimit:10;" d="M 213.835938 124.558594 L 188.378906 123.523438 "/>
<path style="fill:none;stroke-width:1.2;stroke-linecap:butt;stroke-linejoin:miter;stroke:rgb(100%,0%,0%);stroke-opacity:1;stroke-miterlimit:10;" d="M 251.125 148.160156 L 257.9375 137.394531 "/>
<path style="fill:none;stroke-width:1.2;stroke-linecap:butt;stroke-linejoin:miter;stroke:rgb(0%,0%,0%);stroke-opacity:1;stroke-miterlimit:10;" d="M 257.9375 137.394531 L 264.75 126.628906 "/>
<path style=" stroke:none;fill-rule:nonzero;fill:rgb(100%,100%,100%);fill-opacity:1;" d="M 247.125 142.660156 L 255.125 142.660156 L 255.125 153.660156 L 247.125 153.660156 Z M 247.125 142.660156 "/>
<g style="fill:rgb(100%,0%,0%);fill-opacity:1;">
  <use xlink:href="#glyph0-2" x="247.125" y="151.323242"/>
</g>
<path style="fill:none;stroke-width:1.2;stroke-linecap:butt;stroke-linejoin:miter;stroke:rgb(100%,0%,0%);stroke-opacity:1;stroke-miterlimit:10;" d="M 223.875 191.21875 L 236.601562 191.734375 "/>
<path style="fill:none;stroke-width:1.2;stroke-linecap:butt;stroke-linejoin:miter;stroke:rgb(0%,0%,0%);stroke-opacity:1;stroke-miterlimit:10;" d="M 236.601562 191.734375 L 249.332031 192.253906 "/>
<path style=" stroke:none;fill-rule:nonzero;fill:rgb(100%,100%,100%);fill-opacity:1;" d="M 219.875 185.71875 L 227.875 185.71875 L 227.875 196.71875 L 219.875 196.71875 Z M 219.875 185.71875 "/>
<g style="fill:rgb(100%,0%,0%);fill-opacity:1;">
  <use xlink:href="#glyph0-2" x="219.875" y="194.381836"/>
</g>
<path style="fill:none;stroke-width:1.2;stroke-linecap:butt;stroke-linejoin:miter;stroke:rgb(0%,0%,0%);stroke-opacity:1;stroke-miterlimit:10;" d="M 165.824219 186.347656 L 167.964844 198.90625 "/>
<path style="fill:none;stroke-width:1.2;stroke-linecap:butt;stroke-linejoin:miter;stroke:rgb(100%,0%,0%);stroke-opacity:1;stroke-miterlimit:10;" d="M 167.964844 198.90625 L 170.105469 211.464844 "/>
<path style="fill:none;stroke-width:1.2;stroke-linecap:butt;stroke-linejoin:miter;stroke:rgb(0%,0%,0%);stroke-opacity:1;stroke-miterlimit:10;" d="M 171.734375 185.339844 L 173.875 197.898438 "/>
<path style="fill:none;stroke-width:1.2;stroke-linecap:butt;stroke-linejoin:miter;stroke:rgb(100%,0%,0%);stroke-opacity:1;stroke-miterlimit:10;" d="M 173.875 197.898438 L 176.015625 210.457031 "/>
<path style="fill:none;stroke-width:1.2;stroke-linecap:butt;stroke-linejoin:miter;stroke:rgb(0%,0%,0%);stroke-opacity:1;stroke-miterlimit:10;" d="M 168.78125 185.84375 L 157.363281 180.195312 "/>
<path style="fill:none;stroke-width:1.2;stroke-linecap:butt;stroke-linejoin:miter;stroke:rgb(100%,0%,0%);stroke-opacity:1;stroke-miterlimit:10;" d="M 157.363281 180.195312 L 145.945312 174.542969 "/>
<path style=" stroke:none;fill-rule:nonzero;fill:rgb(100%,100%,100%);fill-opacity:1;" d="M 169.0625 205.460938 L 177.0625 205.460938 L 177.0625 216.460938 L 169.0625 216.460938 Z M 169.0625 205.460938 "/>
<g style="fill:rgb(100%,0%,0%);fill-opacity:1;">
  <use xlink:href="#glyph0-2" x="169.0625" y="214.124023"/>
</g>
<path style=" stroke:none;fill-rule:nonzero;fill:rgb(100%,100%,100%);fill-opacity:1;" d="M 141.945312 169.042969 L 149.945312 169.042969 L 149.945312 180.042969 L 141.945312 180.042969 Z M 141.945312 169.042969 "/>
<g style="fill:rgb(100%,0%,0%);fill-opacity:1;">
  <use xlink:href="#glyph0-2" x="141.945312" y="177.706055"/>
</g>
<path style="fill:none;stroke-width:1.2;stroke-linecap:butt;stroke-linejoin:miter;stroke:rgb(100%,0%,0%);stroke-opacity:1;stroke-miterlimit:10;" d="M 118.796875 180.902344 L 115.644531 193.246094 "/>
<path style="fill:none;stroke-width:1.2;stroke-linecap:butt;stroke-linejoin:miter;stroke:rgb(0%,0%,0%);stroke-opacity:1;stroke-miterlimit:10;" d="M 115.644531 193.246094 L 112.492188 205.589844 "/>
<path style=" stroke:none;fill-rule:nonzero;fill:rgb(100%,100%,100%);fill-opacity:1;" d="M 114.796875 175.402344 L 122.796875 175.402344 L 122.796875 186.402344 L 114.796875 186.402344 Z M 114.796875 175.402344 "/>
<g style="fill:rgb(100%,0%,0%);fill-opacity:1;">
  <use xlink:href="#glyph0-2" x="114.796875" y="184.06543"/>
</g>
<path style="fill:none;stroke-width:1.2;stroke-linecap:butt;stroke-linejoin:miter;stroke:rgb(100%,0%,0%);stroke-opacity:1;stroke-miterlimit:10;" d="M 64.742188 192.816406 L 52.136719 190.972656 "/>
<path style="fill:none;stroke-width:1.2;stroke-linecap:butt;stroke-linejoin:miter;stroke:rgb(0%,0%,0%);stroke-opacity:1;stroke-miterlimit:10;" d="M 52.136719 190.972656 L 39.53125 189.125 "/>
<path style=" stroke:none;fill-rule:nonzero;fill:rgb(100%,100%,100%);fill-opacity:1;" d="M 60.742188 187.316406 L 68.742188 187.316406 L 68.742188 198.316406 L 60.742188 198.316406 Z M 60.742188 187.316406 "/>
<g style="fill:rgb(100%,0%,0%);fill-opacity:1;">
  <use xlink:href="#glyph0-2" x="60.742188" y="195.979492"/>
</g>
<path style="fill:none;stroke-width:1.2;stroke-linecap:butt;stroke-linejoin:miter;stroke:rgb(0%,0%,0%);stroke-opacity:1;stroke-miterlimit:10;" d="M 39.53125 189.125 L 37.390625 176.566406 "/>
<path style="fill:none;stroke-width:1.2;stroke-linecap:butt;stroke-linejoin:miter;stroke:rgb(100%,0%,0%);stroke-opacity:1;stroke-miterlimit:10;" d="M 37.390625 176.566406 L 35.25 164.007812 "/>
<path style=" stroke:none;fill-rule:nonzero;fill:rgb(100%,100%,100%);fill-opacity:1;" d="M 31.25 158.507812 L 39.25 158.507812 L 39.25 169.507812 L 31.25 169.507812 Z M 31.25 158.507812 "/>
<g style="fill:rgb(100%,0%,0%);fill-opacity:1;">
  <use xlink:href="#glyph0-2" x="31.25" y="167.170898"/>
</g>
</g>
</svg>

<svg xmlns="http://www.w3.org/2000/svg" xmlns:xlink="http://www.w3.org/1999/xlink" width="300pt" height="300pt" viewBox="0 0 300 300"><defs><symbol overflow="visible"><path d="M.453 1.594v-7.938h4.5v7.938zm.5-.5h3.5v-6.938h-3.5zm0 0"/></symbol><symbol overflow="visible" id="a"><path d="M.89-6.563H2.08l2.906 5.485v-5.484h.86V0H4.656L1.75-5.484V0H.89zm0 0"/></symbol><symbol overflow="visible" id="b"><path d="M3.547-5.953c-.65 0-1.164.242-1.547.72-.375.48-.563 1.13-.563 1.952 0 .835.188 1.49.563 1.967.383.48.898.72 1.547.72.644 0 1.156-.24 1.53-.72.376-.476.564-1.132.564-1.968 0-.822-.187-1.474-.562-1.954-.375-.477-.887-.72-1.53-.72zm0-.734c.914 0 1.648.312 2.203.937.55.617.828 1.438.828 2.47 0 1.042-.277 1.87-.828 2.483-.555.617-1.29.922-2.203.922-.93 0-1.668-.305-2.22-.922C.774-1.41.5-2.237.5-3.28c0-1.033.273-1.853.828-2.47.55-.625 1.29-.938 2.22-.938zm0 0"/></symbol></defs><g><path fill="#fff" d="M0 0h300v300H0z"/><path d="M162.246 99.96l-12.266 3.442" stroke-width="1.2" stroke="#000" stroke-miterlimit="10" fill="none"/><path d="M149.98 103.402l-12.265 3.442M137.715 106.844l-9.113-8.903" stroke-width="1.2" stroke="#00f" stroke-miterlimit="10" fill="none"/><path d="M128.602 97.94l-9.114-8.9M131.41 131.53l3.153-12.343" stroke-width="1.2" stroke="#000" stroke-miterlimit="10" fill="none"/><path d="M134.563 119.188l3.152-12.344" stroke-width="1.2" stroke="#00f" stroke-miterlimit="10" fill="none"/><path d="M134.715 101.344h7v11h-7zm0 0" fill="#fff"/><use xlink:href="#a" x="134.715" y="110.007" fill="#00f"/><path d="M119.488 89.04l-24.53 6.882M94.957 95.922l-6.305 24.687M88.652 120.61l-24.53 6.882M87.816 127.07l-19.625 5.504M106.88 138.41l-18.228-17.8M64.12 127.492l-6.304 24.684M57.816 152.176L76.04 169.98M55.45 158.246l14.577 14.242" stroke-width="1.2" stroke="#000" stroke-miterlimit="10" fill="none"/><path d="M35.25 164.008l11.28-5.914" stroke-width="1.2" stroke="#f00" stroke-miterlimit="10" fill="none"/><path d="M46.53 158.094l11.286-5.918M76.04 169.98l24.53-6.882M76.04 169.98l-5.65 11.418" stroke-width="1.2" stroke="#000" stroke-miterlimit="10" fill="none"/><path d="M70.39 181.398l-5.648 11.418" stroke-width="1.2" stroke="#f00" stroke-miterlimit="10" fill="none"/><path d="M100.57 163.098l6.31-24.688M95.395 159.145l5.043-19.747M100.57 163.098l9.114 8.902" stroke-width="1.2" stroke="#000" stroke-miterlimit="10" fill="none"/><path d="M109.684 172l9.113 8.902" stroke-width="1.2" stroke="#f00" stroke-miterlimit="10" fill="none"/><path d="M131.41 131.53l-25.746 2.552 2.43 8.66zm0 0"/><path d="M131.41 131.53l18.227 17.802" stroke-width="1.2" stroke="#000" stroke-miterlimit="10" fill="none"/><path d="M149.637 149.332m3 .02l-.176-1.028m3.177 1.043l-.352-2.054m3.352 2.074l-.528-3.086m3.527 3.102l-.703-4.11m3.703 4.13l-.88-5.14m3.88 5.155l-1.055-6.164m4.055 6.184l-1.227-7.195m4.227 7.21l-1.403-8.222m3.274 8.234l-1.512-8.863" stroke="#000" stroke-miterlimit="10" fill="none"/><path d="M145.945 174.543l1.844-12.606" stroke-width="1.2" stroke="#f00" stroke-miterlimit="10" fill="none"/><path d="M147.79 161.938l1.847-12.606M174.75 145.055l11.836 22.562M188.38 123.523l-13.63 21.532M192.082 128.883l-10.902 17.222M186.586 167.617l25.457 1.035M189.375 161.73l20.363.83M186.586 167.617l-17.805 18.227M212.043 168.652l13.625-21.527M212.043 168.652l5.914 11.282" stroke-width="1.2" stroke="#000" stroke-miterlimit="10" fill="none"/><path d="M217.957 179.934l5.918 11.285" stroke-width="1.2" stroke="#f00" stroke-miterlimit="10" fill="none"/><path d="M225.668 147.125l-11.832-22.566M219.176 147.652l-9.47-18.054M225.668 147.125l12.727.516" stroke-width="1.2" stroke="#000" stroke-miterlimit="10" fill="none"/><path d="M238.395 147.64l12.73.52" stroke-width="1.2" stroke="#f00" stroke-miterlimit="10" fill="none"/><path d="M213.836 124.56l-25.457-1.037" stroke-width="1.2" stroke="#000" stroke-miterlimit="10" fill="none"/><path d="M251.125 148.16l6.813-10.765" stroke-width="1.2" stroke="#f00" stroke-miterlimit="10" fill="none"/><path d="M257.938 137.395l6.812-10.766" stroke-width="1.2" stroke="#000" stroke-miterlimit="10" fill="none"/><path d="M247.125 142.66h8v11h-8zm0 0" fill="#fff"/><use xlink:href="#b" x="247.125" y="151.323" fill="#f00"/><path d="M223.875 191.22l12.727.514" stroke-width="1.2" stroke="#f00" stroke-miterlimit="10" fill="none"/><path d="M236.602 191.734l12.73.52" stroke-width="1.2" stroke="#000" stroke-miterlimit="10" fill="none"/><path d="M219.875 185.72h8v11h-8zm0 0" fill="#fff"/><use xlink:href="#b" x="219.875" y="194.382" fill="#f00"/><path d="M165.824 186.348l2.14 12.558" stroke-width="1.2" stroke="#000" stroke-miterlimit="10" fill="none"/><path d="M167.965 198.906l2.14 12.56" stroke-width="1.2" stroke="#f00" stroke-miterlimit="10" fill="none"/><path d="M171.734 185.34l2.14 12.558" stroke-width="1.2" stroke="#000" stroke-miterlimit="10" fill="none"/><path d="M173.875 197.898l2.14 12.56" stroke-width="1.2" stroke="#f00" stroke-miterlimit="10" fill="none"/><path d="M168.78 185.844l-11.417-5.65" stroke-width="1.2" stroke="#000" stroke-miterlimit="10" fill="none"/><path d="M157.363 180.195l-11.418-5.652" stroke-width="1.2" stroke="#f00" stroke-miterlimit="10" fill="none"/><path d="M169.063 205.46h8v11h-8zm0 0" fill="#fff"/><use xlink:href="#b" x="169.063" y="214.124" fill="#f00"/><path d="M141.945 169.043h8v11h-8zm0 0" fill="#fff"/><use xlink:href="#b" x="141.945" y="177.706" fill="#f00"/><path d="M118.797 180.902l-3.152 12.344" stroke-width="1.2" stroke="#f00" stroke-miterlimit="10" fill="none"/><path d="M115.645 193.246l-3.153 12.344" stroke-width="1.2" stroke="#000" stroke-miterlimit="10" fill="none"/><path d="M114.797 175.402h8v11h-8zm0 0" fill="#fff"/><use xlink:href="#b" x="114.797" y="184.065" fill="#f00"/><path d="M64.742 192.816l-12.605-1.843" stroke-width="1.2" stroke="#f00" stroke-miterlimit="10" fill="none"/><path d="M52.137 190.973l-12.606-1.848" stroke-width="1.2" stroke="#000" stroke-miterlimit="10" fill="none"/><path d="M60.742 187.316h8v11h-8zm0 0" fill="#fff"/><use xlink:href="#b" x="60.742" y="195.979" fill="#f00"/><path d="M39.53 189.125l-2.14-12.56" stroke-width="1.2" stroke="#000" stroke-miterlimit="10" fill="none"/><path d="M37.39 176.566l-2.14-12.558" stroke-width="1.2" stroke="#f00" stroke-miterlimit="10" fill="none"/><path d="M31.25 158.508h8v11h-8zm0 0" fill="#fff"/><use xlink:href="#b" x="31.25" y="167.171" fill="#f00"/></g></svg>
